icons/sun-outline.svg

<svg xmlns="http://www.w3.org/2000/svg" width="24" height="24" viewBox="0 0 24 24">
  <path d="M12,20 C12.5128358,20 12.9355072,20.3860402 12.9932723,20.8833789 L13,21 L13,22 C13,22.5522847 12.5522847,23 12,23 C11.4871642,23 11.0644928,22.6139598 11.0067277,22.1166211 L11,22 L11,21 C11,20.4477153 11.4477153,20 12,20 Z M6.34314575,17.6568542 C6.70577545,18.0194839 6.73167757,18.5913293 6.42085211,18.983847 L6.34314575,19.0710678 L5.63603897,19.7781746 C5.24551468,20.1686989 4.6123497,20.1686989 4.22182541,19.7781746 C3.85919571,19.4155449 3.83329359,18.8436995 4.14411904,18.4511818 L4.22182541,18.363961 L4.92893219,17.6568542 C5.31945648,17.26633 5.95262146,17.26633 6.34314575,17.6568542 Z M18.983847,17.5791479 L19.0710678,17.6568542 L19.7781746,18.363961 C20.1686989,18.7544853 20.1686989,19.3876503 19.7781746,19.7781746 C19.4155449,20.1408043 18.8436995,20.1667064 18.4511818,19.855881 L18.363961,19.7781746 L17.6568542,19.0710678 C17.26633,18.6805435 17.26633,18.0473785 17.6568542,17.6568542 C18.0194839,17.2942246 18.5913293,17.2683224 18.983847,17.5791479 Z M12,6 C15.3137085,6 18,8.6862915 18,12 C18,15.3137085 15.3137085,18 12,18 C8.6862915,18 6,15.3137085 6,12 C6,8.6862915 8.6862915,6 12,6 Z M12,8 C9.790861,8 8,9.790861 8,12 C8,14.209139 9.790861,16 12,16 C14.209139,16 16,14.209139 16,12 C16,9.790861 14.209139,8 12,8 Z M22,11 C22.5522847,11 23,11.4477153 23,12 C23,12.5128358 22.6139598,12.9355072 22.1166211,12.9932723 L22,13 L21,13 C20.4477153,13 20,12.5522847 20,12 C20,11.4871642 20.3860402,11.0644928 20.8833789,11.0067277 L21,11 L22,11 Z M3,11 C3.55228475,11 4,11.4477153 4,12 C4,12.5128358 3.61395981,12.9355072 3.11662113,12.9932723 L3,13 L2,13 C1.44771525,13 1,12.5522847 1,12 C1,11.4871642 1.38604019,11.0644928 1.88337887,11.0067277 L2,11 L3,11 Z M19.7781746,4.22182541 C20.1408043,4.58445511 20.1667064,5.1563005 19.855881,5.54881816 L19.7781746,5.63603897 L19.0710678,6.34314575 C18.6805435,6.73367004 18.0473785,6.73367004 17.6568542,6.34314575 C17.2942246,5.98051605 17.2683224,5.40867066 17.5791479,5.016153 L17.6568542,4.92893219 L18.363961,4.22182541 C18.7544853,3.83130112 19.3876503,3.83130112 19.7781746,4.22182541 Z M5.54881816,4.14411904 L5.63603897,4.22182541 L6.34314575,4.92893219 C6.73367004,5.31945648 6.73367004,5.95262146 6.34314575,6.34314575 C5.98051605,6.70577545 5.40867066,6.73167757 5.016153,6.42085211 L4.92893219,6.34314575 L4.22182541,5.63603897 C3.83130112,5.24551468 3.83130112,4.6123497 4.22182541,4.22182541 C4.58445511,3.85919571 5.1563005,3.83329359 5.54881816,4.14411904 Z M12,1 C12.5128358,1 12.9355072,1.38604019 12.9932723,1.88337887 L13,2 L13,3 C13,3.55228475 12.5522847,4 12,4 C11.4871642,4 11.0644928,3.61395981 11.0067277,3.11662113 L11,3 L11,2 C11,1.44771525 11.4477153,1 12,1 Z"/>
</svg>

<svg xmlns="http://www.w3.org/2000/svg" viewBox="0 0 24 24">
  <path d="M12 20a1 1 0 0 1 1 .88V22a1 1 0 0 1-2 .12V21a1 1 0 0 1 1-1zm-5.66-2.34a1 1 0 0 1 .08 1.32l-.08.1-.7.7a1 1 0 0 1-1.5-1.33l.08-.09.7-.7a1 1 0 0 1 1.42 0zm12.64-.08.1.08.7.7a1 1 0 0 1-1.33 1.5l-.09-.08-.7-.7a1 1 0 0 1 1.32-1.5zM12 6a6 6 0 1 1 0 12 6 6 0 0 1 0-12zm0 2a4 4 0 1 0 0 8 4 4 0 0 0 0-8zm10 3a1 1 0 0 1 .12 2H21a1 1 0 0 1-.12-2H22zM3 11a1 1 0 0 1 .12 2H2a1 1 0 0 1-.12-2H3zm16.78-6.78a1 1 0 0 1 .08 1.33l-.08.09-.7.7a1 1 0 0 1-1.5-1.32l.08-.1.7-.7a1 1 0 0 1 1.42 0zM5.55 4.14l.09.08.7.7a1 1 0 0 1-1.32 1.5l-.1-.08-.7-.7a1 1 0 0 1 1.33-1.5zM12 1a1 1 0 0 1 1 .88V3a1 1 0 0 1-2 .12V2a1 1 0 0 1 1-1z"/>
</svg>
